X:1
T:Ave dulcissima Virgo Maria
T:Antonio Nola 1642 - >1701
T:Ave dulcissima Virgo Maria
T:(C) Wim Looyestijn - 2018. May be freely copied for non-commercial use.
T:(C) Wim Looyestijn - 2018. May be freely copied for non-commercial use.
T:(C) Wim Looyestijn - 2018. May be freely copied for non-commercial use.
T:(C) Wim Looyestijn - 2018. May be freely copied for non-commercial use.
T:(C) Wim Looyestijn - 2018. May be freely copied for non-commercial use.
T:(C) Wim Looyestijn - 2018. May be freely copied for non-commercial use.
T:(C) Wim Looyestijn - 2018. May be freely copied for non-commercial use.
T:(C) Wim Looyestijn - 2018. May be freely copied for non-commercial use.
T:(C) Wim Looyestijn - 2018. May be freely copied for non-commercial use.
T:(C) Wim Looyestijn - 2018. May be freely copied for non-commercial use.
T:(C) Wim Looyestijn - 2018. May be freely copied for non-commercial use.
T:(C) Wim Looyestijn - 2018. May be freely copied for non-commercial use.
T:(C) Wim Looyestijn - 2018. May be freely copied for non-commercial use.
T:(C) Wim Looyestijn - 2018. May be freely copied for non-commercial use.
T:(C) Wim Looyestijn - 2018. May be freely copied for non-commercial use.
T:(C) Wim Looyestijn - 2018. May be freely copied for non-commercial use.
T:(C) Wim Looyestijn - 2018. May be freely copied for non-commercial use.
T:(C) Wim Looyestijn - 2018. May be freely copied for non-commercial use.
T:(C) Wim Looyestijn - 2018. May be freely copied for non-commercial use.
T:(C) Wim Looyestijn - 2018. May be freely copied for non-commercial use.
T:(C) Wim Looyestijn - 2018. May be freely copied for non-commercial use.
C:Antonio Nola
C:1642 - >1701
Z:(C) Wim Looyestijn - 2018. May be freely copied for non-commercial use.
%%score [ 1 2 3 ] ( 4 5 )
L:1/8
Q:1/4=160
M:6/4
K:F
V:1 alto1 nm="Canto" snm="C"
V:2 alto nm="Alto" snm="A"
V:3 bass nm="Basso" snm="B"
V:4 bass nm="B.C." snm="BC"
V:5 bass 
V:1
 x12 | z12 | x12 | z6 z2 GA Bc | d2 A2 B4 A4 | G2 ^F2 G2 A3 A A2 | B2 A2 G2 ^F3 F G2 | %7
w: |||A- * * *|* ve, a- ve,|a- ve dul- cis- si- ma,|a- ve pu- ris- si- ma|
 A2 A2 d2 d4 c2 | d2 z2 z2 z2 AB cd | _e4 e2 z2 BA Bc | A4 A2 z2 B2 cd | _e2 e2 d2 c3 c c2 | %12
w: vir- go Ma- ri- *|a, a- * * *|* ve, a- * * *|* ve, a- * *|* ve dul- cis- si- ma,|
 d2 d2 c2 B3 B B2 | z2 cd cB A2 B2 B2 | A6 G2 GB Ac | B3 A G2 d4 d2 | z12 | z2 z2 z2 cd Bc AB | %18
w: a- ve pu- ris- si- ma|vir- * * * * go Ma-|ri- a. Fi- * * *|* li- a ma- ter,||fi- * * * * *|
 G3 G A2 Bc dc Bc | A3 G A2 B3 B B2 | A2 A2 A2 A6 | A6 z2 d2 d2 | d2 G2 c4 BA Bc | B2 A4 G2 G2 G2 | %24
w: * li- a spon- * * * * *|* * sa fi- li- a|e- ter- ni Pa-|tris. Ma- ter|ver- bi in- car- * * *|* na- ti, spon- sa|
 G3 G F2 F2 E4 | D2 d2 A2 c3 A G2 | d6 d4 z2 | z2 z2 d4 c4 | c3 c B2 B2 A4 |[M:4/4] GGBG dd d2- | %30
w: Spi- ri- tus San- *|cti, spon- sa Spi- ri- tus|Sanc- ti,|spon- sa|Spi- ri- tus San- *|cti. Tu de- cus cæ- li, tu|
 dd cc/c/ B2 A2 | GA Bc dA d2- | d2 c2 d2 z2 | z GBG d2 d2 | z2 G3 G ^FF/F/ | B3 c/d/ c/B/c/d/ c2 | %36
w: * pur- pu- re- a ro- *||* * sa,|tu de- cus cæ- li,|tu pur- pu- re- a|ro- * * * * * * *|
 B2 z2 z c cB/c/ | A>A A2 z4 | z2 z f _e>d e/f/c/e/ | dcBB B2 A2 | B2 AA G3 G | %41
w: sa, tu can- di- dum|li- li- um,|tu nar- * * * * *|* dus o- do- ri- fe-|ra, o- do- ri- fe-|
 F2 z c B>A B/c/G/B/ | A=Bcc c2 B2 | c2 BB A3 A | G2 z2 z2 cB | A/G/F/G/ A/B/c/A/ B2 F2 | %46
w: ra, tu nar- * * * * *|* dus o- do- ri- fe-|ra, o- do- ri- fe-|ra, te lau-|da- * * * * * * * * mus,|
 z ccc BB z B | A>A B2 GABB | A/G/A/B/ A2 G2 z2 | z2 z c c>c B2 | A2 BB A4 | G16 | %52
w: te a- do- ra- mus, o|in- cly- ta vir- * go Ma-|ri- * * * * a,|o in- cly- ta|vir- go Ma- ri-|a.|
[M:4/4] G>A G>A B>c B>c | d2 dd e2- e/g/c/e/ | d2- d/e/B/d/ c3 c | BBBB A2 AA | A3 A A4 | %57
w: O * * * * * * *|* ad- mi- ra- * * * *|* * * * * * bi-|le mi- ra- cu- lo- rum pro-|di- gi- em|
 z f_ed cc d/=e/c/d/ | cc/c/ dd c/B/c/d/ c2 | B2 z2 z4 | z8 | z2 z B A>A AG | %62
w: ex cre- a- tu- ra ge- * * *|* ni- trix sal- va- to- * * * *|ris||ex fi- li- a re-|
 FG/A/ B/A/G/F/ E2 E2 | z2 z A G>G G A/E/ | F3 E E4 | DA Bc dddd | c2- c/c/d/c/ B3 c/B/ | %67
w: gi- * * * * * * * na,|ex fi- li- a re- *|gi- na mun-|di, ex * * spon- sa im- pa-|ra- * * * * * * *|
 AB cB B A3 | G2 BA GGcc | ccBB A4 | G16 |[M:4/4] z8 | z8 | z8 | z8 | z8 | z8 | z8 | z8 | z8 | z8 | %81
w: * trix an- * ge- lo-|rum, im- pe- ra- trix, im- pe-|ra- trix an- ge- lo-|rum.|||||||||||
 z8 | z8 | z8 | z8 | z8 | z8 | z8 | z8 | z16 |[M:3/1] z4 z4 B4 A6 A2 d4 | d8 c4 d4 d4 c4 | %92
w: |||||||||O do- mi- na|glo- ri- a, te lau-|
 =B2 A2 B2 c2 d2 B2 c4 G8 | z12 z4 B4 d4 | c12 B8 B4 | A12 G12 | F8 z4 z4 f4 c4 | %97
w: da- * * * * * * mus,|te lau-|da- mus, te|lau- da-|mus, a, te|
 d4 A4 A4 B4 F4 d4 | c6 c2 d4 B8 B4 | A8 z4 z4 z8 | z4 f4 _e4 d2 c2 B2 c2 d2 B2 | %101
w: lau- da- te lau- da- mus,|do- mi- na glo- ri-|a,|te lau- da- * * * * *|
 c2 B2 c2 d2 e2 c2 d4 d4 d4- | d4 d8 d4 d4 c4 | d4 d4 z4 z12 | z4 d6 c2 =B2 A2 B2 c2 d2 B2 | %105
w: * * * * * * * mus, o|* re- gi- na ter-|ra- rum,|te lau- * * * * * *|
 c4 A8 z4 f4 _e2 f2 | d4 d4 z4 z12 | z12 z4 z4 d2 d2 | d4 c4 c4 B8 A4 | A12 G4 B8- | %110
w: da- mus, te a- do-|ra- mus,|te lau-|da- mus, te a- do-|ra- mus, o|
 B4 A4 G4 ^F4 F4 G4 | A8 d8 c8 | d4 A4 =B4 c4 c4 c4- | c4 B4 B4 A8 d4- | d4 c8 d8 z4 | %115
w: * im- pe- ra- trix cæ-|lo- * *|rum. Te lau- da- mus, te|* ve- ne- ra- *|* * mus,|
 z4 z4 A8 G4 G4 | c12 B4 z4 z4 | z24 | z4 z4 d8 d8 | d8 c4 d8 d4 | B4 G4 z4 z12 | z4 z4 d8 c4 B4 | %122
w: te ve- ne-|ra- mus,||ve- ne-|ra- * mus, lau-|da- mus|Ma- ri- am|
 A8 A4 G4 z4 z4 | z24 | z12 z4 z4 c4- | c4 B4 B4 A8 d4- | d4 c8 d4 d4 A4 | B4 A4 G4 ^F8 F4 | %128
w: vir- gi- nem,||te|* ve- ne- ra- *|* * mus, a- do-|ra- * * * mus,|
 z12 z4 z4 d4 | d4 c4 c4 B8 B4 | A8 A4 G12 |[M:4/4] z2 BA GA B c/B/ | AA z d cB/A/ dd | %133
w: lau-|da- mus Ma- ri- am|vir- gi- nem.|A- do- ra- mus, ve- ne- *|ra- mus, lau- da- * * * mus,|
 z d BA/B/ AA z B | BA/B/ c/d/c/B/ AA z B | A2 A2 A3 A | G16 |] %137
w: lau- da- * * * mus, lau-|da- * * * * * * * mus Ma-|ri- am vir- gi-|nem.|
V:2
 x12 | z12 | x12 | z12 | z4 G4 ^F4 | G2 A2 B2 ^F3 F F2 | G2 A2 B2 A3 A G2 | G2 ^F2 F2 G4 A2 | %8
w: ||||A- ve,|a- ve dul- cis- si- ma,|a- ve pu- ris- si- ma|vir- go Ma- ri- *|
 ^F2 z2 z2 z2 =FG AB | c4 c2 z2 G^F GA | ^F4 F2 z2 G2 AB | c2 c2 B2 A3 A A2 | B2 B2 A2 G3 G G2 | %13
w: a, a- * * *|* ve, a- * * *|* ve, a- * *|* ve dul- cis- si- ma,|a- ve pu- ris- si- ma|
 z2 AB AG ^F2 G2 G2 | G4 ^F2 G2 z2 z2 | z12 | z2 DF EG F2 E2 D2 | A3 A A2 AB GA FG | %18
w: vir- * * * * go Ma-|ri- * a.||Spon- * * * * sa *|fi- li- a, fi- * * * * *|
 E3 E ^F2 GA BA GA | ^F3 E F2 G3 G G2 | G2 G2 ^F2 G6 | ^F6 z2 D2 D2 | E4 E2 ^F2 G4 | %23
w: * li- a, spon- * * * * *|* * sa fi- li- a|e- ter- ni Pa-|tris. Ma- ter|ver- bi in- car-|
 G4 ^F2 G2 D2 E2 | C3 C D2 D4 C2 | D2 z2 z2 z6 | z2 B2 A2 B3 A G2 | ^F2 F2 D4 E4 | ^F3 F G2 G4 F2 | %29
w: na- * ti, spon- sa|Spi- ri- tus San- *|cti,|spon- sa Spi- ri- tus|Sanc- ti, spon- sa|Spi- ri- tus San- *|
[M:4/4] G2 z2 z D^FD | GG G3 G ^FF/F/ | G^F/E/ DE F3 G/A/ | G/^F/G/A/ G2 F2 z2 | z4 z D^FD | %34
w: cti. Tu de- cus|cæ- li, tu pur- pu- re- a|ro- * * * * * * *|* * * * * sa,|tu de- cus|
 G2 G2 z2 A2- | AA GG/G/ G3 ^F | G2 z2 z4 | z F FE/F/ D>D DD | _E>E D2 C3 C | %39
w: cæ- li, tu|* pur- pu- re- a ro- *|sa,|tu can- di- dum li- li- um, tu|can- di- dum li- li-|
 B,2 z F _E>D E/F/C/E/ | DEFF F2 E2 | F2 z2 z4 | z2 z G F>E F/G/D/F/ | E^FGG G2 F2 | %44
w: um, tu nar- * * * * *|* dus o- do- ri- fe-|ra,|tu nar- * * * * *|* dus o- do- ri- fe-|
 G2 GF E/D/C/D/ E/F/G/E/ | F2 C2 z4 | z AAA GG z G | ^F>F G2 EFGG | G2 ^F2 G2 z B | %49
w: ra, te lau- da- * * * * * * *|* mus,|te a- do- ra- mus, o|in- cly- ta vir- * go Ma-|ri- * a, o|
 B>B AG ^F>F G D/E/ | ^F2 GG G2 F2 | G16 |[M:4/4] z4 G>A G>A | B2 BB B/c/G/B/ A2- | %54
w: in- cly- ta, o in- cly- ta vir- *|* go Ma- ri- *|a.|O * * *|* ad- mi- ra- * * * *|
 A/B/F/A/ G3 ^F/E/ FF | GGGG G2 ^FF | G3 G ^F4 | z8 | z8 | z BAG ^FF G/A/F/G/ | EE/^F/ GG G2 F2 | %61
w: * * * * * * * * bi-|le mi- ra- cu- lo- rum pro-|di- gi- em|||ex cre- a- tu- ra ge- * * *|* ni- trix sal- va- to- *|
 G2 z G F>F FE | DE/F/ G/F/E/D/ ^C2 C2 | z2 z F F>E EE | ED/^C/ DD D2 C2 | D^F GA BBBB | %66
w: rix ex fi- li- a re-|gi- * * * * * * * na,|ex fi- li- a re-|gi- * * * na mun- *|di, ex * * spon- sa im- pa-|
 BA/G/ A3 G/^F/ GA/G/ | ^FGAG G2 F2 | G2 z2 z2 AG | FFGG G2 ^F2 | G16 |[M:4/4] z8 | z8 | z8 | z8 | %75
w: ra- * * * * * * * *|* trix an- ge- lo- *|rum, im- pe-|ra- trix an- ge- lo- *|rum.|||||
 z8 | z8 | z8 | z8 | z8 | z8 | z8 | z8 | z8 | z8 | z8 | z8 | z8 | z8 | z16 | %90
w: |||||||||||||||
[M:3/1] z4 z4 G4 ^F6 E2 D4 | G8 A4 ^F8 z4 | z4 G4 F4 E2 D2 E2 F2 G2 E2 | %93
w: O do- mi- na|glo- ri- a,|te lau- da- * * * * *|
 F2 E2 F2 G2 _E2 F2 D4 B,4 B4- | B4 A8 A4 G4 G4- | G4 F8 F8 E4 | F4 z4 z4 z12 | z4 F4 C4 D4 D4 B4 | %98
w: * * * * * * * mus, te|* lau- da- mus, te|* lau- da- *|mus,|te lau- da- mus o|
 A6 G2 F4 F8 E4 | F4 F4 _E4 D2 C2 B,2 C2 D2 B,2 | C8 C4 z4 B4 B4 | A2 G2 A2 B2 c2 A2 B4 F4 F4- | %102
w: do- mi- na glo- ri-|a, te lau- da- * * * * *|* mus, te lau-|da- * * * * * * mus, o|
 F4 A8 B4 A4 G4 | ^F4 F4 G8 G4 G4 | G8 ^F4 G4 G4 =F2 G2 | E8 E4 z12 | z4 z4 B8 A8 | %107
w: * re- gi- na ter-|ra- rum, te a- do-|ra- mus, * te a- do-|ra- mus.|O re-|
 A4 G4 G4 ^F4 F4 D2 D2 | E4 E4 ^F4 G8 G4 | G8 ^F4 G4 G8- | G4 A4 B4 A4 A4 G4 | G8 ^F4 G12 | %112
w: gi- na ter- ra- rum, te lau-|da- mus, te a- do-|ra- mus, * o|* im- pe- ra- trix cæ-|lo- * *|
 ^F4 z4 z4 z12 | z24 | z4 z4 G8 F4 F4 | E12 D8 G4- | G4 ^F8 G4 B4 B4 | A4 G4 A4 B4 A4 G4 | %118
w: rum.||Te ve- ne-|ra- * *|* * mus, a- do-|ra- * * * * *|
 ^F4 F4 D8 D8 | G12 ^F8 z4 | z4 z4 G4 ^F4 D4 z4 | z4 z4 G8 _E4 G4 | G8 ^F4 G4 D4 E4 | %123
w: * mus, ve- ne-|ra- mus.|Lau- da- mus|Ma- ri- am|vir- gi- nem, te lau-|
 F4 F4 F8 _E4 E4 | D8 G8 ^F8 | G8 D4 C4 D8 | G12 ^F4 z8 | z24 | z12 z4 z4 D4 | E4 E4 ^F4 G8 G4 | %130
w: da- mus, te ve- ne-|ra- * *|mus, te ve- ne-|ra- mus,||lau-|da- mus Ma- ri- am|
 G8 ^F4 G12 |[M:4/4] z2 GA BA G A/G/ | ^FF z B AA z A | GG z D ^FF z G | GF/G/ A/B/A/G/ ^FF z G | %135
w: vir- gi- nem.|A- do- ra- mus, ve- ne- *|ra- mus, lau- da- mus, lau-|da- mus, lau- da- mus, lau-|da- * * * * * * * mus Ma-|
 G2 G2 G3 ^F | G16 |] %137
w: ri- am vir- gi-|nem.|
V:3
 x12 | z12 | x12 | z12 | z4 G,4 A,4 | B,2 A,2 G,2 D3 D D,2 | G,2 ^F,2 G,2 D,3 C, B,,2 | %7
w: ||||A- ve,|a- ve dul- cis- si- ma,|a- ve pu- ris- si- ma|
 C,2 D,2 D,2 _E,6 | D,2 B,,C, D,E, F,4 F,2 | z2 C,D, _E,F, G,4 G,2 | z2 D,E, ^F,D, G,2 G,2 G,2 | %11
w: vir- go Ma- ri-|a, a- * * * * ve,|a- * * * * ve,|a- * * * * ve dul-|
 _E,3 E, E,2 F,2 F,2 E,2 | D,3 D, D,2 z2 _E,F, E,D, | C,4 C,2 D,2 B,,2 G,,2 | D,4 D,,2 G,,2 z2 z2 | %15
w: cis- si- ma, a- ve pu-|ris- si- ma vir- * * *|* go, vir- go Ma-|ri- * a.|
 z12 | z12 | z12 | CD B,C A,B, G,4 G,,2 | D,4 D,2 B,,3 B,, B,,2 | C,2 C,2 D,2 _E,6 | %21
w: |||Ma- * * * * * * ter|spon- sa fi- li- a|e- ter- ni Pa-|
 D,6 z2 B,,2 B,,2 | C,4 C,2 D,2 G,,4 | D,4 D,,2 G,,2 G,2 G,2 | A,3 A, D,2 A,4 A,,2 | D,2 z2 z2 z6 | %26
w: tris. Ma- ter|ver- bi in- car-|na- * ti, spon- sa|Spi- ri- tus San- *|cti,|
 z2 G,2 ^F,2 G,3 =F, _E,2 | D,2 D,2 B,,4 C,4 | D,3 D, G,,2 D,4 D,,2 |[M:4/4] G,,2 z2 z4 | z8 | z8 | %32
w: spon- sa Spi- ri- tus|Sanc- ti, spon- sa|Spi- ri- tus San- *|cti.|||
 z4 z D,^F,D, | G,2 G,2 z2 D2- | DD CC/C/ D2 C2 | B,3 A,/G,/ A,2 D,2 | G,G, G,F,/G,/ _E,>E, E,2 | %37
w: Tu de- cus|cæ- li, tu|* pur- pu- re- a ro- *||sa, tu can- di- dum li- li- um,|
 z4 z B, B,A,/B,/ | G,>A, B,2 B,2 A,2 | B,2 z2 z4 | z2 z C B,>A, B,/C/G,/B,/ | A,G,F,F, F,2 E,2 | %42
w: tu can- * *|* di- dum li- li-|um,|tu nar- * * * * *|* dus o- do- ri- fe-|
 F,2 E,E, D,2 G,,2 | C,2 z2 z2 DC | =B,/A,/G,/A,/ B,/C/D/B,/ C2 C,2 | z4 z B,B,B, | %46
w: ra, o- do- ri- fe-|ra, te lau-|da- * * * * * * * * mus,|te be- ne-|
 ^F,>F, F,2 z2 z G, | D>C B,2 C2 G,G, | D,2 D,,2 G,,2 z B,, | C,>C, C,2 D,2 G,,G,, | D,8 | G,,16 | %52
w: di- ci- mus, o|in- cly- ta vir- go Ma-|ri- * a, o|in- cly- ta vir- go Ma-|ri-|a.|
[M:4/4] z8 | z8 | z8 | z8 | z8 | z8 | z8 | z8 | z8 | z8 | z8 | z8 | z8 | z8 | z8 | z8 | z8 | z8 | %70
w: ||||||||||||||||||
 z16 |[M:4/4] G,2 G,,2 G,G,F,F, | _E,>E, D,D, C,/D,/E,/F,/ G,/A,/B,/C/ | ^F,E,/F,/ G,G, CE, F,2 | %74
w: |Vir- go, vir- go an- te|om- ni- a con- cep- * * * * * * *|* * * * ta fu- * *|
 G,4 z C CB,/C/ | A,F,B,A, G,/F,/G,/A,/ B,B, | A,F, z B, B,2 A,2 | B,2 B,A, G,A,/G,/ ^F,G,/A,/ | %78
w: i ex o- * *|* re sum- mi cre- * * * * a-|to- ris pro- di- *|vi pri- mo ge- * * * * *|
 G,>G, D,2 DCB,A, | G,^F,G,D, G,=F,_E,D, | C,=B,,C,C, z C,_E,F, | %81
w: * ni- ta an- te om- nes|cre- a- tu- ras, an- te om- nes|cre- a- tu- ras in om- ni|
 G,G,/G,/ z G, ^F,/D,/E,/F,/ G,/A,/F,/G,/ | E,/G,/A,/B,/ C/B,/A,/G,/ ^F,E,/F,/ G,G,, | %83
w: po- pu- lo pri- ma- * * * * * * *|* * * * * * * * * * * * tum|
 D,C,D,D,, G,,2 G,F, | E,D,C,=B,, C,C,/D,/ _E,C, | G,>G, G,2 G,E,G,F, | %86
w: ha- * * bu- i, an- te|om- nes cre- a- tu- ras in om- ni|po- pu- lo pri- mo- la- tam|
 E,/G,/A,/B,/ C/E,/F,/G,/ ^F,/A,/B,/C/ D/A,/B,/C/ | B,/C/A,/B,/ G,/B,/A,/G,/ ^F,D B,F,/A,/ | %88
w: ha- * * * * * * * * * * * * * * *||
 G,B,, A,,G,, D,3 D,, | G,,16 |[M:3/1] z4 z4 G,,4 D,6 C,2 B,,4 | _E,8 E,4 D,8 z4 | z12 z4 C4 B,4 | %93
w: * * * * * bu-|i.|O do- mi- na|glo- ri- a,|te lau-|
 A,2 G,2 A,2 B,2 C2 A,2 B,4 B,4 B,,4 | F,2 E,2 F,2 G,2 A,2 F,2 G,6 A,2 B,2 G,2 | %95
w: da- * * * * * * mus, lau-|da- * * * * * * * * *|
 A,2 G,2 A,4 B,4 C2 B,2 C4 C,4 | F,4 F,4 C,4 D,4 A,,4 A,,4 | B,,4 F,,8 z4 z4 B,,4 | %98
w: |mus, te lau- da- mus, lau-|da- mus o|
 F,6 E,2 D,4 G,8 G,4 | F,8 z4 z4 B,4 B,4 | A,2 G,2 A,2 B,2 C2 A,2 B,4 B,4 B,,4 | %101
w: do- mi- na glo- ri-|a, te lau-|da- * * * * * * mus, lau-|
 F,8 F,,4 B,,8 B,4- | B,4 ^F,8 G,4 =F,4 _E,4 | D,4 D,4 B,,8 C,4 G,,4 | D,8 D,,4 G,,8 z4 | %105
w: da- * mus, o|* re- gi- na ter-|ra- rum, te a- do-|ra- * mus,|
 z4 C4 B,4 A,2 G,2 A,2 B,2 C2 A,2 | B,4 B,,4 z4 z12 | z12 z4 z4 B,,2 B,,2 | %108
w: te lau- da- * * * * *|* mus,|te lau-|
 C,4 C,4 D,4 _E,4 B,,4 C,4 | D,8 D,,4 G,,4 G,8- | G,4 ^F,4 G,4 D,4 D,4 B,,4 | C,4 D,8 _E,12 | %112
w: da- mus, te a- * do-|ra- * mus, o|* im- pe- ra- trix cæ-|lo- * *|
 D,4 z4 z4 z4 E,4 ^F,4 | G,4 G,4 G,8 F,4 F,4 | E,12 D,8 D4- | D4 C4 C4 B,12 | %116
w: rum. te lau-|da- mus, te ve- ne-|ra- mus, te|* ve- ne- ra-|
 A,8 D,4 G,,4 G,4 G,4 | ^F,4 E,4 F,4 G,4 =F,4 _E,4 | D,4 D,4 B,,8 B,,8 | _E,12 D,8 z4 | %120
w: * * mus, a- do-|ra- * * * * *|* mus, ve- ne-|ra- mus.|
 z12 z4 z4 D4 | B,4 G,4 B,8 C4 G,4 | D,8 D,,4 G,,4 z4 z4 | z4 A,4 =B,4 C4 C4 C4- | %124
w: Lau-|da- mus Ma- ri- am|vir- gi- nem,|te lau- da- mus, te|
 C4 B,4 B,4 A,12 | G,8 G,8 F,4 F,4 | _E,12 D,4 z4 z4 | z12 z4 D4 A,4 | B,4 A,4 G,4 ^F,4 D,4 B,,4 | %129
w: * ve- ne- ra-|mus, te ve- ne-|ra- mus,|te ve-|ne- ra- * * mus, lau-|
 C,4 C,4 D,4 _E,4 B,,4 C,4 | D,8 D,,4 G,,12 |[M:4/4] z2 G,^F, G,=F,_E,C, | D,D, z B,, F,F, z ^F, | %133
w: da- mus Ma- ri- * am|vir- gi- nem.|A- do- ra- mus, ve- ne-|ra- mus, lau- da- mus, lau-|
 G,G, z G,, D,D, z B,, | _E,2 C,C, D,D, z B,, | C,2 ^C,2 D,3 D,, | G,,16 |] %137
w: da- mus, lau- da- mus, lau-|da- mus, lau- da- mus Ma-|ri- am vir- gi-|nem.|
V:4
 x12 | z12 | x12 | z4 G,4 G,4 | D,4 G,4 A,4 | B,2 A,2 G,2 D,3 D, D,2 | G,2 ^F,2 G,2 D,3 C, B,,2 | %7
w: ||||* * X6|6 X6 * x * *|* * * x * *|
 C,2 D,2 D,2 _E,4 E,2 | D,2 B,,C, D,E, F,4 F,2 | C,4 C,2 G,4 G,,2 | D,2 D,E, F,D, G,2 G,2 F,2 | %11
w: * * * 7```` 6|x * * * * * *|* z * *|* * * x * * * *|
 _E,2 E,2 E,2 F,2 F,2 E,2 | D,3 D, D,2 _E,3 F, E,D, | C,4 C,2 D,2 B,,2 G,,2 | %14
w: |||
 D,4 D,,2 G,,2 G,2 ^F,2 | G,3 F, _E,2 D,4 D,2 | D,2 D2 ^C2 D2 =C2 B,2 | A,3 B,A,G, F,4 F,2 | %18
w: |* * * x *|z * * * * *|x * * * * *|
 C2 B,2 A,2 G,4 G,,2 | D,4 D,2 B,,2- B,,B,, B,,2 | C,2 C,2 D,2 _E,6 | D,2 D,_E, D,C, B,,4 B,,2 | %22
w: ||* * * $3|x * * * * * *|
 C,4 C,2 D,2 G,,4 | D,4 D,,2 G,,2 G,2 G,2 | A,2- A,A, D,2 A,4 A,,2 | D,4 ^F,2 G,3 =F, _E,2 | %26
w: ||||
 D,2 G,2 ^F,2 G,3 =F, _E,2 | D,2 D,2 B,,2 B,,2 C,4 | D,3 D, G,,2 D,4 D,,2 | %29
w: |||
[M:4/4] G,,2 G,G, D,2 D,D, | _E,4 D,4 | G,4 D,4 | _E,4 D,D, ^F,D, | G,2 G,2 D,2 D,D, | _E,4 D,4 | %35
w: |3````6 *|* x|6 * * * *||7``````6 *|
 G,4 A,2 D,2 | G,,G, G,F,/G,/ _E,>E, E,2 | F,2 F,,2 B,,2 B,,B,, | _E,2 B,,2 E,2 F,2 | %39
w: 9`````8 7 7|* * * * * 6 * *|||
 B,,2 B,,2 C,2 F,,2 | B,,2 F,,F,, B,,2 C,2 | F,,3 A,, B,,2 C,2 | F,2 E,E, D,2 G,,2 | %43
w: * * 7 *|||* * * 7 7|
 C,2 G,,2 D,2 D,,2 | G,,4 C,4 | F,4 B,,B, B,B, | ^F,2 F,2 G,2 z G, | D>C B,2 C2 G,G, | %48
w: |||* %3 * *|x * * x * *|
 D,2 D,,2 G,,2 z B,, | C,3 C, D,2 G,,2 | D,4 D,,4 | G,,16 |[M:4/4] G,,8- | G,,2 G,,G,, C,2 F,2 | %54
w: |7 6 7 *|x````4 `4`````x||z|* * * 7 7|
 B,,2 _E,2 A,,2 D,2 | G,,2 B,,B,, C,2 D,D, | _E,4 D,=E, D,C, | B,,2 _E,2 F,2 D,2 | %58
w: 7 7 7 7|* * * * x *|$3 x * * *||
 _E,2 B,,2 F,2 F,,2 | B,,2 C,2 D,2 B,,2 | C,2 G,,2 D,2 D,,2 | G,,2 z G,, A,,3 A,, | %62
w: * * 4 3||||
 B,,2 G,,2 A,,B,, A,,G,, | F,,3 F,, C,2 ^C,2 | D,3 G, A,2 A,,2 | D,2 C,2 B,,C, D,E, | %66
w: * * x * * *|* * 4 3|* * 4 *|x * * * * *|
 F,2 ^F,2 G,3 C, | D,2 C,2 D,2 D,,2 | G,,2 G,F, _E,2 C,2 | D,2 G,,2 D,2 D,,2 | G,,16 | %71
w: 4 %3 * 6|x 6 * *||||
[M:4/4] G,2 G,,2 G,G, F,F, | _E,2 D,2 C,2 B,,2 | A,,2 G,,2 A,,2 D,2 | G,,G, G,F,/G,/ _E,3 E, | %75
w: ||||
 F,2 D,2 _E,2 B,,2 | F,2 D,D, _E,2 F,2 | B,,2 B,^F, G,2 D,2 | G,,2 D,2 B,A, G,^F, | %79
w: ||* * * * x||
 G,D, G,F, _E,D, C,=B,, | C,G,, C,D, _E,C, E,F, | G,G,, D,E, ^F,2 D,D, | C,3 C, D,C,/D,/ B,,G,, | %83
w: |||* 6 * * * * *|
 D,C, D,D,, G,,2 x2 | C,=B,, C,G,, C,3 C, | G,,G,,/A,,/ B,,G,, D,2 B,,2 | C,2 C,2 D,2 ^F,2 | %87
w: ||||
 G,F, _E,C, D,3 D, | G,B,, A,,G,, D,2 D,,2 | G,,16 |[M:3/1] z4 z4 G,,4 D,6 C,2 B,,4 | %91
w: |||* x * *|
 _E,8 E,4 D,8 D,4 | G,8 G,4 C,8 C,4 | F,8 F,4 B,,8 B,,4 | F,8 F,4 G,8 G,4 | A,8 B,4 C8 C,4 | %96
w: 7 6 * *|y * * *||4````3 * 9 6|7````6 * * *|
 F,,4 F,4 C,4 D,4 A,,4 A,,4 | B,,4 F,,8 B,,4 B,,4 B,,4 | F,6 E,2 D,4 G,8 G,4 | %99
w: * * * z 6 *||* * * 7 6|
 F,8 F,,4 B,,4 B,4 B,4 | A,8 A,4 B,4 B,4 B,,4 | F,8 F,,4 B,,8 B,4- | B,4 ^F,8 G,4 =F,4 _E,4 | %103
w: ||||
 D,4 D,4 B,,8 C,4 G,,4 | D,8 D,,4 G,,8 G,,4 | C,4 C4 B,4 A,8 A,4 | B,8 B,,4 F,8 ^F,4 | %107
w: x * 6 z *|* * x *||* * 4 3|
 G,8 G,,4 D,4 D,4 B,,2 B,,2 | C,4 C,4 D,4 _E,4 B,,4 C,4 | D,8 D,,4 G,,4 G,8- | %110
w: |9 6 x * * *||
 G,4 ^F,4 G,4 D,8 B,,4 | C,4 D,8 _E,8 E,4 | D,4 A,4 =B,4 C4 E,4 ^F,4 | G,4 G,4 G,8 F,4 F,4 | %114
w: |* x 7 6||4 6 2 * *|
 E,8 E,4 D,8 D4 | D4 C4 C4 B,8 B,4 | A,8 D,4 G,,4 G,4 G,4 | ^F,4 E,4 F,4 G,4 =F,4 _E,4 | %118
w: 7 X6 4 z||||
 D,4 D,4 B,,8 B,,8 | _E,8 E,4 D,8 ^F,4 | G,8 G,,4 D,8 D4 | B,4 G,4 B,8 C4 G,4 | %122
w: x * 6 *|||* * 6 z *|
 D,8 D,,4 G,,4 D4 E4 | F4 A,4 =B,4 C4 C4 C4- | C4 B,4 B,4 A,8 A,4 | G,8 G,8 F,4 F,4 | %126
w: |* * * 4 z 2|* * * 7````6 *|4 3```2 * *|
 _E,8 E,4 D,8 D,4 | G,4 F,4 _E,4 D,8 ^F,4 | G,4 F,4 _E,4 D,4 D,4 B,,4 | C,4 C,4 D,4 _E,4 B,,4 C,4 | %130
w: 7```6 * * *|||4 5 x * * *|
 D,8 D,,4 G,,12 |[M:4/4] z2 G,^F, G,=F, _E,C, | D,D, z B,, F,F, z ^F, | G,G, z G,, D,D, z B,, | %134
w: |* * * * * 6|* * * * 6 *||
 _E,2 C,C, D,D, z B,, | C,2 ^C,2 D,3 D,, | G,,16 |] %137
w: |||
V:5
 x12 | x12 | x12 | x12 | x12 | x12 | x12 | x12 | x12 | x12 | x12 | x12 | x12 | x12 | x12 | x12 | %16
 x12 | x12 | x12 | x12 | x12 | x12 | x12 | x12 | x12 | x12 | x12 | x12 | x12 |[M:4/4] x8 | x8 | %31
 x8 | x8 | x8 | x8 | x8 | x8 | x8 | x8 | x8 | x8 | x8 | x8 | x8 | x8 | x8 | x8 | x8 | x8 | x8 | %50
 x8 | x16 |[M:4/4] x8 | x8 | x8 | x8 | x8 | x8 | x8 | x8 | x8 | x8 | x8 | x8 | x8 | x8 | x8 | x8 | %68
 x8 | x8 | x16 |[M:4/4] x8 | x8 | x8 | x8 | x8 | x8 | x8 | x2 DC x4 | x8 | x8 | x8 | x8 | %83
 x4 G,F, _E,D, | x8 | x8 | x8 | x8 | x8 | x16 |[M:3/1] x24 | x24 | x24 | x24 | x24 | x24 | x24 | %97
 x24 | x24 | x24 | x24 | x24 | x24 | x24 | x24 | x24 | x24 | x24 | x24 | x24 | x24 | x24 | x24 | %113
 x24 | x24 | x24 | x24 | x24 | x24 | x24 | x24 | x24 | x24 | x24 | x24 | x24 | x24 | x24 | x24 | %129
 x24 | x24 |[M:4/4] x8 | x8 | x8 | x8 | x8 | x16 |] %137

